X:1
T:Selig sind die Toten
T:Joachim Kelecom (°1977)
T:Lyrics: Apok. 14, 13
T:Selig sind die Toten
T:©
T:©
T:©
T:©
C:Joachim Kelecom (°1977)
Z:©
%%score [ 1 2 3 ]
L:1/8
Q:1/4=100
M:3/4
K:F
V:1 treble nm="Soprano" snm="S"
V:2 treble nm="Alto" snm="A"
V:3 treble-8 nm="Baritone" snm="B"
V:1
 AG A2 c2 | d2 A2 c2 | Bd f2 e2 | d2 d2 d2 | e4 d2 | z2 A2 e2 | d4 c2 | B4 d2 | e2 c2 g2 | e4 d2 | %10
w: Se- lig sind die|To- ten die|in den Herr- en|ster- ben von|nun an.|Ja, der|Geist, der|Geist, der|Geist spricht, der|Geist, der|
 c4 d2- | d2 e4 | ^f6 | z6 | z6 | c4 d2- | d2 c4 | B2 A2 G2 | F2 G2 A2 | B2 c2 d2 | e2 d4 | z6 | %22
w: Geist, der|_ Geist|spricht:|||"Sie ru-|* hen|von ihr- er|Ar- beit, sie|ru- hen vom|Ar- beit||
 D4 A2- | A2 B4 | A2 G2 E2 | F2 G2 E2 | D2 D2 E2 | F2 G2 A2 | B2 (c2 A2) | d6 || d4 c2- | c2 e4 | %32
w: Und ih-|* re|Wer- ke fol-|gen ihn' nach,|und ih- re|Wer- ke fol-|gen ihn' _|nach."|Hal- le-|* lu-|
 d2 B2 c2 | d2 A2 B2 | (c2 G2) A2 | B2 d2 f2 | (f4 e2- | e2 c4) | d6 |] %39
w: jah, hal- le-|lu- jah, hal-|le- * lu-|jah, hal- le-|lu- *||jah.|
V:2
 z6 | AG A2 c2 | d2 A2 c2 | BA F2 A2 | G4 A2 | z2 A2 A2 | B4 A2 | G4 G2 | F2 A2 B2 | c4 B2 | %10
w: |Se- lig sind die|To- ten die|in den Her- ren|ster- ben.|Ja, der|Geist, der|Geist, der|Geist spricht, der|Geist, der|
 A4 G2- | G2 A4 | A6 | z2 A4 | B4 A2 | G2 A2 E2 | F4 E2- | E2 z2 D2 | D2 E2 F2 | (G2 c2) B2 | %20
w: Geist, der|_ Geist|spricht:|"Sie|ru- hen|von ihr- er|Ar- beit,|_ sie|ru- hen von|ihr- * er|
 A2 A4 | z6 | z6 | D4 G2- | G2 E2 D2 | D2 E2 E2 | D2 D2 C2 | D2 E2 F2 | G2 A2 G2 | A6 || A4 A2- | %31
w: Ar- beit|||Und ih-|* re Wer-|ke fol- gen|ihn' nach, und|ih- re Wer-|ke fol- gen|nach."|Hal- le-|
 A2 A4 | B2 G2 A2 | B2 F2 G2 | (A2 E2) F2 | G2 B2 c2 | (d4 c2- | c2 B4) | A6 |] %39
w: * lu-|jah, hal- le-|lu- jah, hal-|le- * lu-|jah, hal- le-|lu- *||jah.|
V:3
 z4 AG | A2 F2 E2 | D2 C2 DF | GF ED F2 | C4 D2 | D4 C2 | D4 E2 | F4 E2 | D2 F2 E2 | F4 E2 | %10
w: Se- lig|sind die To-|ten die in den|Herr- ren ster- ben von|nun an.|Ja, der|Geist, der|Geist, der|Geist spricht, der|Geist, der|
 D4 C2- | C2 C4 | D6 | z6 | z6 | z2 C4 | D4 E2- | E2 z2 D2 | D2 C2 B,2 | A,2 (A,2 B,2) | C2 D4 | %21
w: Geist, der|_ Geist|spricht.|||Sie|ru- hen|_ von|ihr- er Ar-|beit, sie _|ru- hen|
 D4 A2- | A2 B4 | (A2 G2) E2 | F2 C2 E2 | D4 C2 | B,4 A,2 | G,4 D2 | C2 F2 E2 | D6 || D4 E2- | %31
w: und ih-|* re|Wer- * ke|fol- gen ihn'|nach, und|ih- re|Wer- ke|fol- gen ihn'|nach."|Hal- le-|
 E2 F4 | D2 D2 E2 | F2 D2 C2 | (D2 B,2) C2 | D2 E2 F2 | (G4 A2- | A2 E4) | D6 |] %39
w: * lu-|jah, hal- le-|lu- jah, hal-|le- * lu-|jah, hal- le-|lu- *||jah.|

